X:38
T:The First House in Connaught
N:Reel Allan's #38
N:Trad/Anon
N: Thoughtfully transcribed for me by Mr. R.W.W. Taylor of New York
N:since I stupidly forgot to do this. Thank you!
S: Allan's Irish Fiddler (ed. Mozart Allen) Glascow 1920's
M:C|
L:1/8
K:G
(GF)|DG {a}((3GFG) AG {a}((3GFG)|BddB AGFE|DF {G}((3FEF) AF {G}((3FEF)|ABcA BGAF|
DG {a}((3GFG) AG {a}((3GFG)|Bddc AGFA|defg agfd|cAFA G2::
(ef)|{a}gfga gfdf|{a}((3gfg) (bg) {a}gede|fede fgag|{a}((3gfg) (ag) bgaf|
{a}gfga gfdf|{a}((3gfg) (bg) {a}gfdc|defg agfd|cAFA G2:|
